( Made using CamBam - http://www.cambam.co.uk )
( subosc_panel 1/1/2016 9:03:58 PM )
( T3 : 3.175 )
G21 G90 G64 G40
G0 Z3.0
( T3 : 3.175 )
T3 M6
( holes )
G17
M3 S1000
G0 X19.4835 Y108.0212
G0 Z3.0
G0 X19.496 Y108.0212
G1 F1000.0 Z0.0
G2 F2000.0 X19.4772 Y108.0104 Z-0.0333 I-0.0125 J0.0
G2 Y108.0321 Z-0.0667 I0.0062 J0.0108
G2 X19.496 Y108.0212 Z-0.1 I0.0063 J-0.0108
G2 X19.4772 Y108.0104 Z-0.1333 I-0.0125 J0.0
G2 Y108.0321 Z-0.1667 I0.0062 J0.0108
G2 X19.496 Y108.0212 Z-0.2 I0.0063 J-0.0108
G2 X19.4772 Y108.0104 Z-0.2333 I-0.0125 J0.0
G2 Y108.0321 Z-0.2667 I0.0062 J0.0108
G2 X19.496 Y108.0212 Z-0.3 I0.0063 J-0.0108
G2 X19.4772 Y108.0104 Z-0.3333 I-0.0125 J0.0
G2 Y108.0321 Z-0.3667 I0.0062 J0.0108
G2 X19.496 Y108.0212 Z-0.4 I0.0063 J-0.0108
G2 X19.4772 Y108.0104 Z-0.4333 I-0.0125 J0.0
G2 Y108.0321 Z-0.4667 I0.0062 J0.0108
G2 X19.496 Y108.0212 Z-0.5 I0.0063 J-0.0108
G2 X19.4772 Y108.0104 Z-0.5333 I-0.0125 J0.0
G2 Y108.0321 Z-0.5667 I0.0062 J0.0108
G2 X19.496 Y108.0212 Z-0.6 I0.0063 J-0.0108
G2 X19.4772 Y108.0104 Z-0.6333 I-0.0125 J0.0
G2 Y108.0321 Z-0.6667 I0.0062 J0.0108
G2 X19.496 Y108.0212 Z-0.7 I0.0063 J-0.0108
G2 X19.4772 Y108.0104 Z-0.7333 I-0.0125 J0.0
G2 Y108.0321 Z-0.7667 I0.0062 J0.0108
G2 X19.496 Y108.0212 Z-0.8 I0.0063 J-0.0108
G2 X19.4772 Y108.0104 Z-0.8333 I-0.0125 J0.0
G2 Y108.0321 Z-0.8667 I0.0062 J0.0108
G2 X19.496 Y108.0212 Z-0.9 I0.0063 J-0.0108
G2 X19.4772 Y108.0104 Z-0.9333 I-0.0125 J0.0
G2 Y108.0321 Z-0.9667 I0.0062 J0.0108
G2 X19.496 Y108.0212 Z-1.0 I0.0063 J-0.0108
G2 X19.4772 Y108.0104 Z-1.0333 I-0.0125 J0.0
G2 Y108.0321 Z-1.0667 I0.0062 J0.0108
G2 X19.496 Y108.0212 Z-1.1 I0.0063 J-0.0108
G2 X19.4772 Y108.0104 Z-1.1333 I-0.0125 J0.0
G2 Y108.0321 Z-1.1667 I0.0062 J0.0108
G2 X19.496 Y108.0212 Z-1.2 I0.0063 J-0.0108
G2 X19.4772 Y108.0104 Z-1.2333 I-0.0125 J0.0
G2 Y108.0321 Z-1.2667 I0.0062 J0.0108
G2 X19.496 Y108.0212 Z-1.3 I0.0063 J-0.0108
G2 X19.4772 Y108.0104 Z-1.3333 I-0.0125 J0.0
G2 Y108.0321 Z-1.3667 I0.0062 J0.0108
G2 X19.496 Y108.0212 Z-1.4 I0.0063 J-0.0108
G2 X19.4772 Y108.0104 Z-1.4333 I-0.0125 J0.0
G2 Y108.0321 Z-1.4667 I0.0062 J0.0108
G2 X19.496 Y108.0212 Z-1.5 I0.0063 J-0.0108
G2 X19.4772 Y108.0104 Z-1.5333 I-0.0125 J0.0
G2 Y108.0321 Z-1.5667 I0.0062 J0.0108
G2 X19.496 Y108.0212 Z-1.6 I0.0063 J-0.0108
G2 X19.4772 Y108.0104 Z-1.6333 I-0.0125 J0.0
G2 Y108.0321 Z-1.6667 I0.0062 J0.0108
G2 X19.496 Y108.0212 Z-1.7 I0.0063 J-0.0108
G2 X19.4772 Y108.0104 Z-1.7333 I-0.0125 J0.0
G2 Y108.0321 Z-1.7667 I0.0062 J0.0108
G2 X19.496 Y108.0212 Z-1.8 I0.0063 J-0.0108
G2 X19.4772 Y108.0104 Z-1.8333 I-0.0125 J0.0
G2 Y108.0321 Z-1.8667 I0.0062 J0.0108
G2 X19.496 Y108.0212 Z-1.9 I0.0063 J-0.0108
G2 X19.4772 Y108.0104 Z-1.9333 I-0.0125 J0.0
G2 Y108.0321 Z-1.9667 I0.0062 J0.0108
G2 X19.496 Y108.0212 Z-2.0 I0.0063 J-0.0108
G2 X19.4772 Y108.0104 Z-2.0333 I-0.0125 J0.0
G2 Y108.0321 Z-2.0667 I0.0062 J0.0108
G2 X19.496 Y108.0212 Z-2.1 I0.0063 J-0.0108
G2 X19.4772 Y108.0104 Z-2.1333 I-0.0125 J0.0
G2 Y108.0321 Z-2.1667 I0.0062 J0.0108
G2 X19.496 Y108.0212 Z-2.2 I0.0063 J-0.0108
G2 X19.4772 Y108.0104 Z-2.2333 I-0.0125 J0.0
G2 Y108.0321 Z-2.2667 I0.0062 J0.0108
G2 X19.496 Y108.0212 Z-2.3 I0.0063 J-0.0108
G2 X19.4772 Y108.0104 Z-2.3333 I-0.0125 J0.0
G2 Y108.0321 Z-2.3667 I0.0062 J0.0108
G2 X19.496 Y108.0212 Z-2.4 I0.0063 J-0.0108
G2 X19.4772 Y108.0104 Z-2.4333 I-0.0125 J0.0
G2 Y108.0321 Z-2.4667 I0.0062 J0.0108
G2 X19.496 Y108.0212 Z-2.5 I0.0063 J-0.0108
G2 X19.4772 Y108.0104 Z-2.5333 I-0.0125 J0.0
G2 Y108.0321 Z-2.5667 I0.0062 J0.0108
G2 X19.496 Y108.0212 Z-2.6 I0.0063 J-0.0108
G2 X19.4772 Y108.0104 Z-2.6333 I-0.0125 J0.0
G2 Y108.0321 Z-2.6667 I0.0062 J0.0108
G2 X19.496 Y108.0212 Z-2.7 I0.0063 J-0.0108
G2 X19.4772 Y108.0104 Z-2.7333 I-0.0125 J0.0
G2 Y108.0321 Z-2.7667 I0.0062 J0.0108
G2 X19.496 Y108.0212 Z-2.8 I0.0063 J-0.0108
G2 X19.4772 Y108.0104 Z-2.8333 I-0.0125 J0.0
G2 Y108.0321 Z-2.8667 I0.0062 J0.0108
G2 X19.496 Y108.0212 Z-2.9 I0.0063 J-0.0108
G2 X19.4772 Y108.0104 Z-2.9333 I-0.0125 J0.0
G2 Y108.0321 Z-2.9667 I0.0062 J0.0108
G2 X19.496 Y108.0212 Z-3.0 I0.0063 J-0.0108
G2 X19.4772 Y108.0104 Z-3.0333 I-0.0125 J0.0
G2 Y108.0321 Z-3.0667 I0.0062 J0.0108
G2 X19.496 Y108.0212 Z-3.1 I0.0063 J-0.0108
G2 X19.4772 Y108.0104 Z-3.1333 I-0.0125 J0.0
G2 Y108.0321 Z-3.1667 I0.0062 J0.0108
G2 X19.496 Y108.0212 Z-3.2 I0.0063 J-0.0108
G2 X19.4772 Y108.0104 I-0.0125 J0.0
G2 Y108.0321 I0.0063 J0.0108
G2 X19.496 Y108.0212 I0.0062 J-0.0108
G0 Z3.0
G0 X27.4764 Y90.145
G1 F1000.0 Z0.0
G2 F2000.0 X27.4577 Y90.1342 Z-0.0333 I-0.0125 J0.0
G2 Y90.1559 Z-0.0667 I0.0062 J0.0108
G2 X27.4764 Y90.145 Z-0.1 I0.0063 J-0.0108
G2 X27.4577 Y90.1342 Z-0.1333 I-0.0125 J0.0
G2 Y90.1559 Z-0.1667 I0.0062 J0.0108
G2 X27.4764 Y90.145 Z-0.2 I0.0063 J-0.0108
G2 X27.4577 Y90.1342 Z-0.2333 I-0.0125 J0.0
G2 Y90.1559 Z-0.2667 I0.0062 J0.0108
G2 X27.4764 Y90.145 Z-0.3 I0.0063 J-0.0108
G2 X27.4577 Y90.1342 Z-0.3333 I-0.0125 J0.0
G2 Y90.1559 Z-0.3667 I0.0062 J0.0108
G2 X27.4764 Y90.145 Z-0.4 I0.0063 J-0.0108
G2 X27.4577 Y90.1342 Z-0.4333 I-0.0125 J0.0
G2 Y90.1559 Z-0.4667 I0.0062 J0.0108
G2 X27.4764 Y90.145 Z-0.5 I0.0063 J-0.0108
G2 X27.4577 Y90.1342 Z-0.5333 I-0.0125 J0.0
G2 Y90.1559 Z-0.5667 I0.0062 J0.0108
G2 X27.4764 Y90.145 Z-0.6 I0.0063 J-0.0108
G2 X27.4577 Y90.1342 Z-0.6333 I-0.0125 J0.0
G2 Y90.1559 Z-0.6667 I0.0062 J0.0108
G2 X27.4764 Y90.145 Z-0.7 I0.0063 J-0.0108
G2 X27.4577 Y90.1342 Z-0.7333 I-0.0125 J0.0
G2 Y90.1559 Z-0.7667 I0.0062 J0.0108
G2 X27.4764 Y90.145 Z-0.8 I0.0063 J-0.0108
G2 X27.4577 Y90.1342 Z-0.8333 I-0.0125 J0.0
G2 Y90.1559 Z-0.8667 I0.0062 J0.0108
G2 X27.4764 Y90.145 Z-0.9 I0.0063 J-0.0108
G2 X27.4577 Y90.1342 Z-0.9333 I-0.0125 J0.0
G2 Y90.1559 Z-0.9667 I0.0062 J0.0108
G2 X27.4764 Y90.145 Z-1.0 I0.0063 J-0.0108
G2 X27.4577 Y90.1342 Z-1.0333 I-0.0125 J0.0
G2 Y90.1559 Z-1.0667 I0.0062 J0.0108
G2 X27.4764 Y90.145 Z-1.1 I0.0063 J-0.0108
G2 X27.4577 Y90.1342 Z-1.1333 I-0.0125 J0.0
G2 Y90.1559 Z-1.1667 I0.0062 J0.0108
G2 X27.4764 Y90.145 Z-1.2 I0.0063 J-0.0108
G2 X27.4577 Y90.1342 Z-1.2333 I-0.0125 J0.0
G2 Y90.1559 Z-1.2667 I0.0062 J0.0108
G2 X27.4764 Y90.145 Z-1.3 I0.0063 J-0.0108
G2 X27.4577 Y90.1342 Z-1.3333 I-0.0125 J0.0
G2 Y90.1559 Z-1.3667 I0.0062 J0.0108
G2 X27.4764 Y90.145 Z-1.4 I0.0063 J-0.0108
G2 X27.4577 Y90.1342 Z-1.4333 I-0.0125 J0.0
G2 Y90.1559 Z-1.4667 I0.0062 J0.0108
G2 X27.4764 Y90.145 Z-1.5 I0.0063 J-0.0108
G2 X27.4577 Y90.1342 Z-1.5333 I-0.0125 J0.0
G2 Y90.1559 Z-1.5667 I0.0062 J0.0108
G2 X27.4764 Y90.145 Z-1.6 I0.0063 J-0.0108
G2 X27.4577 Y90.1342 Z-1.6333 I-0.0125 J0.0
G2 Y90.1559 Z-1.6667 I0.0062 J0.0108
G2 X27.4764 Y90.145 Z-1.7 I0.0063 J-0.0108
G2 X27.4577 Y90.1342 Z-1.7333 I-0.0125 J0.0
G2 Y90.1559 Z-1.7667 I0.0062 J0.0108
G2 X27.4764 Y90.145 Z-1.8 I0.0063 J-0.0108
G2 X27.4577 Y90.1342 Z-1.8333 I-0.0125 J0.0
G2 Y90.1559 Z-1.8667 I0.0062 J0.0108
G2 X27.4764 Y90.145 Z-1.9 I0.0063 J-0.0108
G2 X27.4577 Y90.1342 Z-1.9333 I-0.0125 J0.0
G2 Y90.1559 Z-1.9667 I0.0062 J0.0108
G2 X27.4764 Y90.145 Z-2.0 I0.0063 J-0.0108
G2 X27.4577 Y90.1342 Z-2.0333 I-0.0125 J0.0
G2 Y90.1559 Z-2.0667 I0.0062 J0.0108
G2 X27.4764 Y90.145 Z-2.1 I0.0063 J-0.0108
G2 X27.4577 Y90.1342 Z-2.1333 I-0.0125 J0.0
G2 Y90.1559 Z-2.1667 I0.0062 J0.0108
G2 X27.4764 Y90.145 Z-2.2 I0.0063 J-0.0108
G2 X27.4577 Y90.1342 Z-2.2333 I-0.0125 J0.0
G2 Y90.1559 Z-2.2667 I0.0062 J0.0108
G2 X27.4764 Y90.145 Z-2.3 I0.0063 J-0.0108
G2 X27.4577 Y90.1342 Z-2.3333 I-0.0125 J0.0
G2 Y90.1559 Z-2.3667 I0.0062 J0.0108
G2 X27.4764 Y90.145 Z-2.4 I0.0063 J-0.0108
G2 X27.4577 Y90.1342 Z-2.4333 I-0.0125 J0.0
G2 Y90.1559 Z-2.4667 I0.0062 J0.0108
G2 X27.4764 Y90.145 Z-2.5 I0.0063 J-0.0108
G2 X27.4577 Y90.1342 Z-2.5333 I-0.0125 J0.0
G2 Y90.1559 Z-2.5667 I0.0062 J0.0108
G2 X27.4764 Y90.145 Z-2.6 I0.0063 J-0.0108
G2 X27.4577 Y90.1342 Z-2.6333 I-0.0125 J0.0
G2 Y90.1559 Z-2.6667 I0.0062 J0.0108
G2 X27.4764 Y90.145 Z-2.7 I0.0063 J-0.0108
G2 X27.4577 Y90.1342 Z-2.7333 I-0.0125 J0.0
G2 Y90.1559 Z-2.7667 I0.0062 J0.0108
G2 X27.4764 Y90.145 Z-2.8 I0.0063 J-0.0108
G2 X27.4577 Y90.1342 Z-2.8333 I-0.0125 J0.0
G2 Y90.1559 Z-2.8667 I0.0062 J0.0108
G2 X27.4764 Y90.145 Z-2.9 I0.0063 J-0.0108
G2 X27.4577 Y90.1342 Z-2.9333 I-0.0125 J0.0
G2 Y90.1559 Z-2.9667 I0.0062 J0.0108
G2 X27.4764 Y90.145 Z-3.0 I0.0063 J-0.0108
G2 X27.4577 Y90.1342 Z-3.0333 I-0.0125 J0.0
G2 Y90.1559 Z-3.0667 I0.0062 J0.0108
G2 X27.4764 Y90.145 Z-3.1 I0.0063 J-0.0108
G2 X27.4577 Y90.1342 Z-3.1333 I-0.0125 J0.0
G2 Y90.1559 Z-3.1667 I0.0062 J0.0108
G2 X27.4764 Y90.145 Z-3.2 I0.0063 J-0.0108
G2 X27.4577 Y90.1342 I-0.0125 J0.0
G2 Y90.1559 I0.0063 J0.0108
G2 X27.4764 Y90.145 I0.0062 J-0.0108
G0 Z3.0
G0 X27.4635 Y72.2619
G1 F1000.0 Z0.0
G2 F2000.0 X27.4448 Y72.2511 Z-0.0333 I-0.0125 J0.0
G2 Y72.2727 Z-0.0667 I0.0062 J0.0108
G2 X27.4635 Y72.2619 Z-0.1 I0.0063 J-0.0108
G2 X27.4448 Y72.2511 Z-0.1333 I-0.0125 J0.0
G2 Y72.2727 Z-0.1667 I0.0062 J0.0108
G2 X27.4635 Y72.2619 Z-0.2 I0.0063 J-0.0108
G2 X27.4448 Y72.2511 Z-0.2333 I-0.0125 J0.0
G2 Y72.2727 Z-0.2667 I0.0062 J0.0108
G2 X27.4635 Y72.2619 Z-0.3 I0.0063 J-0.0108
G2 X27.4448 Y72.2511 Z-0.3333 I-0.0125 J0.0
G2 Y72.2727 Z-0.3667 I0.0062 J0.0108
G2 X27.4635 Y72.2619 Z-0.4 I0.0063 J-0.0108
G2 X27.4448 Y72.2511 Z-0.4333 I-0.0125 J0.0
G2 Y72.2727 Z-0.4667 I0.0062 J0.0108
G2 X27.4635 Y72.2619 Z-0.5 I0.0063 J-0.0108
G2 X27.4448 Y72.2511 Z-0.5333 I-0.0125 J0.0
G2 Y72.2727 Z-0.5667 I0.0062 J0.0108
G2 X27.4635 Y72.2619 Z-0.6 I0.0063 J-0.0108
G2 X27.4448 Y72.2511 Z-0.6333 I-0.0125 J0.0
G2 Y72.2727 Z-0.6667 I0.0062 J0.0108
G2 X27.4635 Y72.2619 Z-0.7 I0.0063 J-0.0108
G2 X27.4448 Y72.2511 Z-0.7333 I-0.0125 J0.0
G2 Y72.2727 Z-0.7667 I0.0062 J0.0108
G2 X27.4635 Y72.2619 Z-0.8 I0.0063 J-0.0108
G2 X27.4448 Y72.2511 Z-0.8333 I-0.0125 J0.0
G2 Y72.2727 Z-0.8667 I0.0062 J0.0108
G2 X27.4635 Y72.2619 Z-0.9 I0.0063 J-0.0108
G2 X27.4448 Y72.2511 Z-0.9333 I-0.0125 J0.0
G2 Y72.2727 Z-0.9667 I0.0062 J0.0108
G2 X27.4635 Y72.2619 Z-1.0 I0.0063 J-0.0108
G2 X27.4448 Y72.2511 Z-1.0333 I-0.0125 J0.0
G2 Y72.2727 Z-1.0667 I0.0062 J0.0108
G2 X27.4635 Y72.2619 Z-1.1 I0.0063 J-0.0108
G2 X27.4448 Y72.2511 Z-1.1333 I-0.0125 J0.0
G2 Y72.2727 Z-1.1667 I0.0062 J0.0108
G2 X27.4635 Y72.2619 Z-1.2 I0.0063 J-0.0108
G2 X27.4448 Y72.2511 Z-1.2333 I-0.0125 J0.0
G2 Y72.2727 Z-1.2667 I0.0062 J0.0108
G2 X27.4635 Y72.2619 Z-1.3 I0.0063 J-0.0108
G2 X27.4448 Y72.2511 Z-1.3333 I-0.0125 J0.0
G2 Y72.2727 Z-1.3667 I0.0062 J0.0108
G2 X27.4635 Y72.2619 Z-1.4 I0.0063 J-0.0108
G2 X27.4448 Y72.2511 Z-1.4333 I-0.0125 J0.0
G2 Y72.2727 Z-1.4667 I0.0062 J0.0108
G2 X27.4635 Y72.2619 Z-1.5 I0.0063 J-0.0108
G2 X27.4448 Y72.2511 Z-1.5333 I-0.0125 J0.0
G2 Y72.2727 Z-1.5667 I0.0062 J0.0108
G2 X27.4635 Y72.2619 Z-1.6 I0.0063 J-0.0108
G2 X27.4448 Y72.2511 Z-1.6333 I-0.0125 J0.0
G2 Y72.2727 Z-1.6667 I0.0062 J0.0108
G2 X27.4635 Y72.2619 Z-1.7 I0.0063 J-0.0108
G2 X27.4448 Y72.2511 Z-1.7333 I-0.0125 J0.0
G2 Y72.2727 Z-1.7667 I0.0062 J0.0108
G2 X27.4635 Y72.2619 Z-1.8 I0.0063 J-0.0108
G2 X27.4448 Y72.2511 Z-1.8333 I-0.0125 J0.0
G2 Y72.2727 Z-1.8667 I0.0062 J0.0108
G2 X27.4635 Y72.2619 Z-1.9 I0.0063 J-0.0108
G2 X27.4448 Y72.2511 Z-1.9333 I-0.0125 J0.0
G2 Y72.2727 Z-1.9667 I0.0062 J0.0108
G2 X27.4635 Y72.2619 Z-2.0 I0.0063 J-0.0108
G2 X27.4448 Y72.2511 Z-2.0333 I-0.0125 J0.0
G2 Y72.2727 Z-2.0667 I0.0062 J0.0108
G2 X27.4635 Y72.2619 Z-2.1 I0.0063 J-0.0108
G2 X27.4448 Y72.2511 Z-2.1333 I-0.0125 J0.0
G2 Y72.2727 Z-2.1667 I0.0062 J0.0108
G2 X27.4635 Y72.2619 Z-2.2 I0.0063 J-0.0108
G2 X27.4448 Y72.2511 Z-2.2333 I-0.0125 J0.0
G2 Y72.2727 Z-2.2667 I0.0062 J0.0108
G2 X27.4635 Y72.2619 Z-2.3 I0.0063 J-0.0108
G2 X27.4448 Y72.2511 Z-2.3333 I-0.0125 J0.0
G2 Y72.2727 Z-2.3667 I0.0062 J0.0108
G2 X27.4635 Y72.2619 Z-2.4 I0.0063 J-0.0108
G2 X27.4448 Y72.2511 Z-2.4333 I-0.0125 J0.0
G2 Y72.2727 Z-2.4667 I0.0062 J0.0108
G2 X27.4635 Y72.2619 Z-2.5 I0.0063 J-0.0108
G2 X27.4448 Y72.2511 Z-2.5333 I-0.0125 J0.0
G2 Y72.2727 Z-2.5667 I0.0062 J0.0108
G2 X27.4635 Y72.2619 Z-2.6 I0.0063 J-0.0108
G2 X27.4448 Y72.2511 Z-2.6333 I-0.0125 J0.0
G2 Y72.2727 Z-2.6667 I0.0062 J0.0108
G2 X27.4635 Y72.2619 Z-2.7 I0.0063 J-0.0108
G2 X27.4448 Y72.2511 Z-2.7333 I-0.0125 J0.0
G2 Y72.2727 Z-2.7667 I0.0062 J0.0108
G2 X27.4635 Y72.2619 Z-2.8 I0.0063 J-0.0108
G2 X27.4448 Y72.2511 Z-2.8333 I-0.0125 J0.0
G2 Y72.2727 Z-2.8667 I0.0062 J0.0108
G2 X27.4635 Y72.2619 Z-2.9 I0.0063 J-0.0108
G2 X27.4448 Y72.2511 Z-2.9333 I-0.0125 J0.0
G2 Y72.2727 Z-2.9667 I0.0062 J0.0108
G2 X27.4635 Y72.2619 Z-3.0 I0.0063 J-0.0108
G2 X27.4448 Y72.2511 Z-3.0333 I-0.0125 J0.0
G2 Y72.2727 Z-3.0667 I0.0062 J0.0108
G2 X27.4635 Y72.2619 Z-3.1 I0.0063 J-0.0108
G2 X27.4448 Y72.2511 Z-3.1333 I-0.0125 J0.0
G2 Y72.2727 Z-3.1667 I0.0062 J0.0108
G2 X27.4635 Y72.2619 Z-3.2 I0.0063 J-0.0108
G2 X27.4448 Y72.2511 I-0.0125 J0.0
G2 Y72.2727 I0.0063 J0.0108
G2 X27.4635 Y72.2619 I0.0062 J-0.0108
G0 Z3.0
G0 X27.4678 Y54.5619
G1 F1000.0 Z0.0
G2 F2000.0 X27.449 Y54.5511 Z-0.0333 I-0.0125 J0.0
G2 Y54.5727 Z-0.0667 I0.0063 J0.0108
G2 X27.4678 Y54.5619 Z-0.1 I0.0062 J-0.0108
G2 X27.449 Y54.5511 Z-0.1333 I-0.0125 J0.0
G2 Y54.5727 Z-0.1667 I0.0063 J0.0108
G2 X27.4678 Y54.5619 Z-0.2 I0.0062 J-0.0108
G2 X27.449 Y54.5511 Z-0.2333 I-0.0125 J0.0
G2 Y54.5727 Z-0.2667 I0.0063 J0.0108
G2 X27.4678 Y54.5619 Z-0.3 I0.0062 J-0.0108
G2 X27.449 Y54.5511 Z-0.3333 I-0.0125 J0.0
G2 Y54.5727 Z-0.3667 I0.0063 J0.0108
G2 X27.4678 Y54.5619 Z-0.4 I0.0062 J-0.0108
G2 X27.449 Y54.5511 Z-0.4333 I-0.0125 J0.0
G2 Y54.5727 Z-0.4667 I0.0063 J0.0108
G2 X27.4678 Y54.5619 Z-0.5 I0.0062 J-0.0108
G2 X27.449 Y54.5511 Z-0.5333 I-0.0125 J0.0
G2 Y54.5727 Z-0.5667 I0.0063 J0.0108
G2 X27.4678 Y54.5619 Z-0.6 I0.0062 J-0.0108
G2 X27.449 Y54.5511 Z-0.6333 I-0.0125 J0.0
G2 Y54.5727 Z-0.6667 I0.0063 J0.0108
G2 X27.4678 Y54.5619 Z-0.7 I0.0062 J-0.0108
G2 X27.449 Y54.5511 Z-0.7333 I-0.0125 J0.0
G2 Y54.5727 Z-0.7667 I0.0063 J0.0108
G2 X27.4678 Y54.5619 Z-0.8 I0.0062 J-0.0108
G2 X27.449 Y54.5511 Z-0.8333 I-0.0125 J0.0
G2 Y54.5727 Z-0.8667 I0.0063 J0.0108
G2 X27.4678 Y54.5619 Z-0.9 I0.0062 J-0.0108
G2 X27.449 Y54.5511 Z-0.9333 I-0.0125 J0.0
G2 Y54.5727 Z-0.9667 I0.0063 J0.0108
G2 X27.4678 Y54.5619 Z-1.0 I0.0062 J-0.0108
G2 X27.449 Y54.5511 Z-1.0333 I-0.0125 J0.0
G2 Y54.5727 Z-1.0667 I0.0063 J0.0108
G2 X27.4678 Y54.5619 Z-1.1 I0.0062 J-0.0108
G2 X27.449 Y54.5511 Z-1.1333 I-0.0125 J0.0
G2 Y54.5727 Z-1.1667 I0.0063 J0.0108
G2 X27.4678 Y54.5619 Z-1.2 I0.0062 J-0.0108
G2 X27.449 Y54.5511 Z-1.2333 I-0.0125 J0.0
G2 Y54.5727 Z-1.2667 I0.0063 J0.0108
G2 X27.4678 Y54.5619 Z-1.3 I0.0062 J-0.0108
G2 X27.449 Y54.5511 Z-1.3333 I-0.0125 J0.0
G2 Y54.5727 Z-1.3667 I0.0063 J0.0108
G2 X27.4678 Y54.5619 Z-1.4 I0.0062 J-0.0108
G2 X27.449 Y54.5511 Z-1.4333 I-0.0125 J0.0
G2 Y54.5727 Z-1.4667 I0.0063 J0.0108
G2 X27.4678 Y54.5619 Z-1.5 I0.0062 J-0.0108
G2 X27.449 Y54.5511 Z-1.5333 I-0.0125 J0.0
G2 Y54.5727 Z-1.5667 I0.0063 J0.0108
G2 X27.4678 Y54.5619 Z-1.6 I0.0062 J-0.0108
G2 X27.449 Y54.5511 Z-1.6333 I-0.0125 J0.0
G2 Y54.5727 Z-1.6667 I0.0063 J0.0108
G2 X27.4678 Y54.5619 Z-1.7 I0.0062 J-0.0108
G2 X27.449 Y54.5511 Z-1.7333 I-0.0125 J0.0
G2 Y54.5727 Z-1.7667 I0.0063 J0.0108
G2 X27.4678 Y54.5619 Z-1.8 I0.0062 J-0.0108
G2 X27.449 Y54.5511 Z-1.8333 I-0.0125 J0.0
G2 Y54.5727 Z-1.8667 I0.0063 J0.0108
G2 X27.4678 Y54.5619 Z-1.9 I0.0062 J-0.0108
G2 X27.449 Y54.5511 Z-1.9333 I-0.0125 J0.0
G2 Y54.5727 Z-1.9667 I0.0063 J0.0108
G2 X27.4678 Y54.5619 Z-2.0 I0.0062 J-0.0108
G2 X27.449 Y54.5511 Z-2.0333 I-0.0125 J0.0
G2 Y54.5727 Z-2.0667 I0.0063 J0.0108
G2 X27.4678 Y54.5619 Z-2.1 I0.0062 J-0.0108
G2 X27.449 Y54.5511 Z-2.1333 I-0.0125 J0.0
G2 Y54.5727 Z-2.1667 I0.0063 J0.0108
G2 X27.4678 Y54.5619 Z-2.2 I0.0062 J-0.0108
G2 X27.449 Y54.5511 Z-2.2333 I-0.0125 J0.0
G2 Y54.5727 Z-2.2667 I0.0063 J0.0108
G2 X27.4678 Y54.5619 Z-2.3 I0.0062 J-0.0108
G2 X27.449 Y54.5511 Z-2.3333 I-0.0125 J0.0
G2 Y54.5727 Z-2.3667 I0.0063 J0.0108
G2 X27.4678 Y54.5619 Z-2.4 I0.0062 J-0.0108
G2 X27.449 Y54.5511 Z-2.4333 I-0.0125 J0.0
G2 Y54.5727 Z-2.4667 I0.0063 J0.0108
G2 X27.4678 Y54.5619 Z-2.5 I0.0062 J-0.0108
G2 X27.449 Y54.5511 Z-2.5333 I-0.0125 J0.0
G2 Y54.5727 Z-2.5667 I0.0063 J0.0108
G2 X27.4678 Y54.5619 Z-2.6 I0.0062 J-0.0108
G2 X27.449 Y54.5511 Z-2.6333 I-0.0125 J0.0
G2 Y54.5727 Z-2.6667 I0.0063 J0.0108
G2 X27.4678 Y54.5619 Z-2.7 I0.0062 J-0.0108
G2 X27.449 Y54.5511 Z-2.7333 I-0.0125 J0.0
G2 Y54.5727 Z-2.7667 I0.0063 J0.0108
G2 X27.4678 Y54.5619 Z-2.8 I0.0062 J-0.0108
G2 X27.449 Y54.5511 Z-2.8333 I-0.0125 J0.0
G2 Y54.5727 Z-2.8667 I0.0063 J0.0108
G2 X27.4678 Y54.5619 Z-2.9 I0.0062 J-0.0108
G2 X27.449 Y54.5511 Z-2.9333 I-0.0125 J0.0
G2 Y54.5727 Z-2.9667 I0.0063 J0.0108
G2 X27.4678 Y54.5619 Z-3.0 I0.0062 J-0.0108
G2 X27.449 Y54.5511 Z-3.0333 I-0.0125 J0.0
G2 Y54.5727 Z-3.0667 I0.0063 J0.0108
G2 X27.4678 Y54.5619 Z-3.1 I0.0062 J-0.0108
G2 X27.449 Y54.5511 Z-3.1333 I-0.0125 J0.0
G2 Y54.5727 Z-3.1667 I0.0063 J0.0108
G2 X27.4678 Y54.5619 Z-3.2 I0.0062 J-0.0108
G2 X27.449 Y54.5511 I-0.0125 J0.0
G2 Y54.5727 I0.0063 J0.0108
G2 X27.4678 Y54.5619 I0.0062 J-0.0108
G0 Z3.0
G0 X27.4642 Y36.779
G1 F1000.0 Z0.0
G2 F2000.0 X27.4455 Y36.7681 Z-0.0333 I-0.0125 J0.0
G2 Y36.7898 Z-0.0667 I0.0063 J0.0108
G2 X27.4642 Y36.779 Z-0.1 I0.0062 J-0.0108
G2 X27.4455 Y36.7681 Z-0.1333 I-0.0125 J0.0
G2 Y36.7898 Z-0.1667 I0.0063 J0.0108
G2 X27.4642 Y36.779 Z-0.2 I0.0062 J-0.0108
G2 X27.4455 Y36.7681 Z-0.2333 I-0.0125 J0.0
G2 Y36.7898 Z-0.2667 I0.0063 J0.0108
G2 X27.4642 Y36.779 Z-0.3 I0.0062 J-0.0108
G2 X27.4455 Y36.7681 Z-0.3333 I-0.0125 J0.0
G2 Y36.7898 Z-0.3667 I0.0063 J0.0108
G2 X27.4642 Y36.779 Z-0.4 I0.0062 J-0.0108
G2 X27.4455 Y36.7681 Z-0.4333 I-0.0125 J0.0
G2 Y36.7898 Z-0.4667 I0.0063 J0.0108
G2 X27.4642 Y36.779 Z-0.5 I0.0062 J-0.0108
G2 X27.4455 Y36.7681 Z-0.5333 I-0.0125 J0.0
G2 Y36.7898 Z-0.5667 I0.0063 J0.0108
G2 X27.4642 Y36.779 Z-0.6 I0.0062 J-0.0108
G2 X27.4455 Y36.7681 Z-0.6333 I-0.0125 J0.0
G2 Y36.7898 Z-0.6667 I0.0063 J0.0108
G2 X27.4642 Y36.779 Z-0.7 I0.0062 J-0.0108
G2 X27.4455 Y36.7681 Z-0.7333 I-0.0125 J0.0
G2 Y36.7898 Z-0.7667 I0.0063 J0.0108
G2 X27.4642 Y36.779 Z-0.8 I0.0062 J-0.0108
G2 X27.4455 Y36.7681 Z-0.8333 I-0.0125 J0.0
G2 Y36.7898 Z-0.8667 I0.0063 J0.0108
G2 X27.4642 Y36.779 Z-0.9 I0.0062 J-0.0108
G2 X27.4455 Y36.7681 Z-0.9333 I-0.0125 J0.0
G2 Y36.7898 Z-0.9667 I0.0063 J0.0108
G2 X27.4642 Y36.779 Z-1.0 I0.0062 J-0.0108
G2 X27.4455 Y36.7681 Z-1.0333 I-0.0125 J0.0
G2 Y36.7898 Z-1.0667 I0.0063 J0.0108
G2 X27.4642 Y36.779 Z-1.1 I0.0062 J-0.0108
G2 X27.4455 Y36.7681 Z-1.1333 I-0.0125 J0.0
G2 Y36.7898 Z-1.1667 I0.0063 J0.0108
G2 X27.4642 Y36.779 Z-1.2 I0.0062 J-0.0108
G2 X27.4455 Y36.7681 Z-1.2333 I-0.0125 J0.0
G2 Y36.7898 Z-1.2667 I0.0063 J0.0108
G2 X27.4642 Y36.779 Z-1.3 I0.0062 J-0.0108
G2 X27.4455 Y36.7681 Z-1.3333 I-0.0125 J0.0
G2 Y36.7898 Z-1.3667 I0.0063 J0.0108
G2 X27.4642 Y36.779 Z-1.4 I0.0062 J-0.0108
G2 X27.4455 Y36.7681 Z-1.4333 I-0.0125 J0.0
G2 Y36.7898 Z-1.4667 I0.0063 J0.0108
G2 X27.4642 Y36.779 Z-1.5 I0.0062 J-0.0108
G2 X27.4455 Y36.7681 Z-1.5333 I-0.0125 J0.0
G2 Y36.7898 Z-1.5667 I0.0063 J0.0108
G2 X27.4642 Y36.779 Z-1.6 I0.0062 J-0.0108
G2 X27.4455 Y36.7681 Z-1.6333 I-0.0125 J0.0
G2 Y36.7898 Z-1.6667 I0.0063 J0.0108
G2 X27.4642 Y36.779 Z-1.7 I0.0062 J-0.0108
G2 X27.4455 Y36.7681 Z-1.7333 I-0.0125 J0.0
G2 Y36.7898 Z-1.7667 I0.0063 J0.0108
G2 X27.4642 Y36.779 Z-1.8 I0.0062 J-0.0108
G2 X27.4455 Y36.7681 Z-1.8333 I-0.0125 J0.0
G2 Y36.7898 Z-1.8667 I0.0063 J0.0108
G2 X27.4642 Y36.779 Z-1.9 I0.0062 J-0.0108
G2 X27.4455 Y36.7681 Z-1.9333 I-0.0125 J0.0
G2 Y36.7898 Z-1.9667 I0.0063 J0.0108
G2 X27.4642 Y36.779 Z-2.0 I0.0062 J-0.0108
G2 X27.4455 Y36.7681 Z-2.0333 I-0.0125 J0.0
G2 Y36.7898 Z-2.0667 I0.0063 J0.0108
G2 X27.4642 Y36.779 Z-2.1 I0.0062 J-0.0108
G2 X27.4455 Y36.7681 Z-2.1333 I-0.0125 J0.0
G2 Y36.7898 Z-2.1667 I0.0063 J0.0108
G2 X27.4642 Y36.779 Z-2.2 I0.0062 J-0.0108
G2 X27.4455 Y36.7681 Z-2.2333 I-0.0125 J0.0
G2 Y36.7898 Z-2.2667 I0.0063 J0.0108
G2 X27.4642 Y36.779 Z-2.3 I0.0062 J-0.0108
G2 X27.4455 Y36.7681 Z-2.3333 I-0.0125 J0.0
G2 Y36.7898 Z-2.3667 I0.0063 J0.0108
G2 X27.4642 Y36.779 Z-2.4 I0.0062 J-0.0108
G2 X27.4455 Y36.7681 Z-2.4333 I-0.0125 J0.0
G2 Y36.7898 Z-2.4667 I0.0063 J0.0108
G2 X27.4642 Y36.779 Z-2.5 I0.0062 J-0.0108
G2 X27.4455 Y36.7681 Z-2.5333 I-0.0125 J0.0
G2 Y36.7898 Z-2.5667 I0.0063 J0.0108
G2 X27.4642 Y36.779 Z-2.6 I0.0062 J-0.0108
G2 X27.4455 Y36.7681 Z-2.6333 I-0.0125 J0.0
G2 Y36.7898 Z-2.6667 I0.0063 J0.0108
G2 X27.4642 Y36.779 Z-2.7 I0.0062 J-0.0108
G2 X27.4455 Y36.7681 Z-2.7333 I-0.0125 J0.0
G2 Y36.7898 Z-2.7667 I0.0063 J0.0108
G2 X27.4642 Y36.779 Z-2.8 I0.0062 J-0.0108
G2 X27.4455 Y36.7681 Z-2.8333 I-0.0125 J0.0
G2 Y36.7898 Z-2.8667 I0.0063 J0.0108
G2 X27.4642 Y36.779 Z-2.9 I0.0062 J-0.0108
G2 X27.4455 Y36.7681 Z-2.9333 I-0.0125 J0.0
G2 Y36.7898 Z-2.9667 I0.0063 J0.0108
G2 X27.4642 Y36.779 Z-3.0 I0.0062 J-0.0108
G2 X27.4455 Y36.7681 Z-3.0333 I-0.0125 J0.0
G2 Y36.7898 Z-3.0667 I0.0063 J0.0108
G2 X27.4642 Y36.779 Z-3.1 I0.0062 J-0.0108
G2 X27.4455 Y36.7681 Z-3.1333 I-0.0125 J0.0
G2 Y36.7898 Z-3.1667 I0.0063 J0.0108
G2 X27.4642 Y36.779 Z-3.2 I0.0062 J-0.0108
G2 X27.4455 Y36.7681 I-0.0125 J0.0
G2 Y36.7898 I0.0063 J0.0108
G2 X27.4642 Y36.779 I0.0062 J-0.0108
G0 Z3.0
G0 X19.6109 Y18.9221
G1 F1000.0 Z0.0
G2 F2000.0 X19.5922 Y18.9113 Z-0.0333 I-0.0125 J0.0
G2 Y18.9329 Z-0.0667 I0.0062 J0.0108
G2 X19.6109 Y18.9221 Z-0.1 I0.0063 J-0.0108
G2 X19.5922 Y18.9113 Z-0.1333 I-0.0125 J0.0
G2 Y18.9329 Z-0.1667 I0.0062 J0.0108
G2 X19.6109 Y18.9221 Z-0.2 I0.0063 J-0.0108
G2 X19.5922 Y18.9113 Z-0.2333 I-0.0125 J0.0
G2 Y18.9329 Z-0.2667 I0.0062 J0.0108
G2 X19.6109 Y18.9221 Z-0.3 I0.0063 J-0.0108
G2 X19.5922 Y18.9113 Z-0.3333 I-0.0125 J0.0
G2 Y18.9329 Z-0.3667 I0.0062 J0.0108
G2 X19.6109 Y18.9221 Z-0.4 I0.0063 J-0.0108
G2 X19.5922 Y18.9113 Z-0.4333 I-0.0125 J0.0
G2 Y18.9329 Z-0.4667 I0.0062 J0.0108
G2 X19.6109 Y18.9221 Z-0.5 I0.0063 J-0.0108
G2 X19.5922 Y18.9113 Z-0.5333 I-0.0125 J0.0
G2 Y18.9329 Z-0.5667 I0.0062 J0.0108
G2 X19.6109 Y18.9221 Z-0.6 I0.0063 J-0.0108
G2 X19.5922 Y18.9113 Z-0.6333 I-0.0125 J0.0
G2 Y18.9329 Z-0.6667 I0.0062 J0.0108
G2 X19.6109 Y18.9221 Z-0.7 I0.0063 J-0.0108
G2 X19.5922 Y18.9113 Z-0.7333 I-0.0125 J0.0
G2 Y18.9329 Z-0.7667 I0.0062 J0.0108
G2 X19.6109 Y18.9221 Z-0.8 I0.0063 J-0.0108
G2 X19.5922 Y18.9113 Z-0.8333 I-0.0125 J0.0
G2 Y18.9329 Z-0.8667 I0.0062 J0.0108
G2 X19.6109 Y18.9221 Z-0.9 I0.0063 J-0.0108
G2 X19.5922 Y18.9113 Z-0.9333 I-0.0125 J0.0
G2 Y18.9329 Z-0.9667 I0.0062 J0.0108
G2 X19.6109 Y18.9221 Z-1.0 I0.0063 J-0.0108
G2 X19.5922 Y18.9113 Z-1.0333 I-0.0125 J0.0
G2 Y18.9329 Z-1.0667 I0.0062 J0.0108
G2 X19.6109 Y18.9221 Z-1.1 I0.0063 J-0.0108
G2 X19.5922 Y18.9113 Z-1.1333 I-0.0125 J0.0
G2 Y18.9329 Z-1.1667 I0.0062 J0.0108
G2 X19.6109 Y18.9221 Z-1.2 I0.0063 J-0.0108
G2 X19.5922 Y18.9113 Z-1.2333 I-0.0125 J0.0
G2 Y18.9329 Z-1.2667 I0.0062 J0.0108
G2 X19.6109 Y18.9221 Z-1.3 I0.0063 J-0.0108
G2 X19.5922 Y18.9113 Z-1.3333 I-0.0125 J0.0
G2 Y18.9329 Z-1.3667 I0.0062 J0.0108
G2 X19.6109 Y18.9221 Z-1.4 I0.0063 J-0.0108
G2 X19.5922 Y18.9113 Z-1.4333 I-0.0125 J0.0
G2 Y18.9329 Z-1.4667 I0.0062 J0.0108
G2 X19.6109 Y18.9221 Z-1.5 I0.0063 J-0.0108
G2 X19.5922 Y18.9113 Z-1.5333 I-0.0125 J0.0
G2 Y18.9329 Z-1.5667 I0.0062 J0.0108
G2 X19.6109 Y18.9221 Z-1.6 I0.0063 J-0.0108
G2 X19.5922 Y18.9113 Z-1.6333 I-0.0125 J0.0
G2 Y18.9329 Z-1.6667 I0.0062 J0.0108
G2 X19.6109 Y18.9221 Z-1.7 I0.0063 J-0.0108
G2 X19.5922 Y18.9113 Z-1.7333 I-0.0125 J0.0
G2 Y18.9329 Z-1.7667 I0.0062 J0.0108
G2 X19.6109 Y18.9221 Z-1.8 I0.0063 J-0.0108
G2 X19.5922 Y18.9113 Z-1.8333 I-0.0125 J0.0
G2 Y18.9329 Z-1.8667 I0.0062 J0.0108
G2 X19.6109 Y18.9221 Z-1.9 I0.0063 J-0.0108
G2 X19.5922 Y18.9113 Z-1.9333 I-0.0125 J0.0
G2 Y18.9329 Z-1.9667 I0.0062 J0.0108
G2 X19.6109 Y18.9221 Z-2.0 I0.0063 J-0.0108
G2 X19.5922 Y18.9113 Z-2.0333 I-0.0125 J0.0
G2 Y18.9329 Z-2.0667 I0.0062 J0.0108
G2 X19.6109 Y18.9221 Z-2.1 I0.0063 J-0.0108
G2 X19.5922 Y18.9113 Z-2.1333 I-0.0125 J0.0
G2 Y18.9329 Z-2.1667 I0.0062 J0.0108
G2 X19.6109 Y18.9221 Z-2.2 I0.0063 J-0.0108
G2 X19.5922 Y18.9113 Z-2.2333 I-0.0125 J0.0
G2 Y18.9329 Z-2.2667 I0.0062 J0.0108
G2 X19.6109 Y18.9221 Z-2.3 I0.0063 J-0.0108
G2 X19.5922 Y18.9113 Z-2.3333 I-0.0125 J0.0
G2 Y18.9329 Z-2.3667 I0.0062 J0.0108
G2 X19.6109 Y18.9221 Z-2.4 I0.0063 J-0.0108
G2 X19.5922 Y18.9113 Z-2.4333 I-0.0125 J0.0
G2 Y18.9329 Z-2.4667 I0.0063 J0.0108
G2 X19.6109 Y18.9221 Z-2.5 I0.0062 J-0.0108
G2 X19.5922 Y18.9113 Z-2.5333 I-0.0125 J0.0
G2 Y18.9329 Z-2.5667 I0.0063 J0.0108
G2 X19.6109 Y18.9221 Z-2.6 I0.0062 J-0.0108
G2 X19.5922 Y18.9113 Z-2.6333 I-0.0125 J0.0
G2 Y18.9329 Z-2.6667 I0.0063 J0.0108
G2 X19.6109 Y18.9221 Z-2.7 I0.0062 J-0.0108
G2 X19.5922 Y18.9113 Z-2.7333 I-0.0125 J0.0
G2 Y18.9329 Z-2.7667 I0.0063 J0.0108
G2 X19.6109 Y18.9221 Z-2.8 I0.0062 J-0.0108
G2 X19.5922 Y18.9113 Z-2.8333 I-0.0125 J0.0
G2 Y18.9329 Z-2.8667 I0.0063 J0.0108
G2 X19.6109 Y18.9221 Z-2.9 I0.0062 J-0.0108
G2 X19.5922 Y18.9113 Z-2.9333 I-0.0125 J0.0
G2 Y18.9329 Z-2.9667 I0.0063 J0.0108
G2 X19.6109 Y18.9221 Z-3.0 I0.0062 J-0.0108
G2 X19.5922 Y18.9113 Z-3.0333 I-0.0125 J0.0
G2 Y18.9329 Z-3.0667 I0.0063 J0.0108
G2 X19.6109 Y18.9221 Z-3.1 I0.0062 J-0.0108
G2 X19.5922 Y18.9113 Z-3.1333 I-0.0125 J0.0
G2 Y18.9329 Z-3.1667 I0.0063 J0.0108
G2 X19.6109 Y18.9221 Z-3.2 I0.0062 J-0.0108
G2 X19.5922 Y18.9113 I-0.0125 J0.0
G2 Y18.9329 I0.0063 J0.0108
G2 X19.6109 Y18.9221 I0.0062 J-0.0108
G0 Z3.0
G0 X9.1802 Y4.1877
G1 F1000.0 Z0.0
G2 F2000.0 X9.1615 Y4.1769 Z-0.0333 I-0.0125 J0.0
G2 Y4.1986 Z-0.0667 I0.0062 J0.0108
G2 X9.1802 Y4.1877 Z-0.1 I0.0062 J-0.0108
G2 X9.1615 Y4.1769 Z-0.1333 I-0.0125 J0.0
G2 Y4.1986 Z-0.1667 I0.0062 J0.0108
G2 X9.1802 Y4.1877 Z-0.2 I0.0062 J-0.0108
G2 X9.1615 Y4.1769 Z-0.2333 I-0.0125 J0.0
G2 Y4.1986 Z-0.2667 I0.0062 J0.0108
G2 X9.1802 Y4.1877 Z-0.3 I0.0062 J-0.0108
G2 X9.1615 Y4.1769 Z-0.3333 I-0.0125 J0.0
G2 Y4.1986 Z-0.3667 I0.0062 J0.0108
G2 X9.1802 Y4.1877 Z-0.4 I0.0062 J-0.0108
G2 X9.1615 Y4.1769 Z-0.4333 I-0.0125 J0.0
G2 Y4.1986 Z-0.4667 I0.0062 J0.0108
G2 X9.1802 Y4.1877 Z-0.5 I0.0062 J-0.0108
G2 X9.1615 Y4.1769 Z-0.5333 I-0.0125 J0.0
G2 Y4.1986 Z-0.5667 I0.0062 J0.0108
G2 X9.1802 Y4.1877 Z-0.6 I0.0062 J-0.0108
G2 X9.1615 Y4.1769 Z-0.6333 I-0.0125 J0.0
G2 Y4.1986 Z-0.6667 I0.0062 J0.0108
G2 X9.1802 Y4.1877 Z-0.7 I0.0062 J-0.0108
G2 X9.1615 Y4.1769 Z-0.7333 I-0.0125 J0.0
G2 Y4.1986 Z-0.7667 I0.0062 J0.0108
G2 X9.1802 Y4.1877 Z-0.8 I0.0062 J-0.0108
G2 X9.1615 Y4.1769 Z-0.8333 I-0.0125 J0.0
G2 Y4.1986 Z-0.8667 I0.0062 J0.0108
G2 X9.1802 Y4.1877 Z-0.9 I0.0062 J-0.0108
G2 X9.1615 Y4.1769 Z-0.9333 I-0.0125 J0.0
G2 Y4.1986 Z-0.9667 I0.0062 J0.0108
G2 X9.1802 Y4.1877 Z-1.0 I0.0062 J-0.0108
G2 X9.1615 Y4.1769 Z-1.0333 I-0.0125 J0.0
G2 Y4.1986 Z-1.0667 I0.0062 J0.0108
G2 X9.1802 Y4.1877 Z-1.1 I0.0062 J-0.0108
G2 X9.1615 Y4.1769 Z-1.1333 I-0.0125 J0.0
G2 Y4.1986 Z-1.1667 I0.0062 J0.0108
G2 X9.1802 Y4.1877 Z-1.2 I0.0063 J-0.0108
G2 X9.1615 Y4.1769 Z-1.2333 I-0.0125 J0.0
G2 Y4.1986 Z-1.2667 I0.0062 J0.0108
G2 X9.1802 Y4.1877 Z-1.3 I0.0063 J-0.0108
G2 X9.1615 Y4.1769 Z-1.3333 I-0.0125 J0.0
G2 Y4.1986 Z-1.3667 I0.0062 J0.0108
G2 X9.1802 Y4.1877 Z-1.4 I0.0063 J-0.0108
G2 X9.1615 Y4.1769 Z-1.4333 I-0.0125 J0.0
G2 Y4.1986 Z-1.4667 I0.0062 J0.0108
G2 X9.1802 Y4.1877 Z-1.5 I0.0063 J-0.0108
G2 X9.1615 Y4.1769 Z-1.5333 I-0.0125 J0.0
G2 Y4.1986 Z-1.5667 I0.0062 J0.0108
G2 X9.1802 Y4.1877 Z-1.6 I0.0063 J-0.0108
G2 X9.1615 Y4.1769 Z-1.6333 I-0.0125 J0.0
G2 Y4.1986 Z-1.6667 I0.0062 J0.0108
G2 X9.1802 Y4.1877 Z-1.7 I0.0063 J-0.0108
G2 X9.1615 Y4.1769 Z-1.7333 I-0.0125 J0.0
G2 Y4.1986 Z-1.7667 I0.0062 J0.0108
G2 X9.1802 Y4.1877 Z-1.8 I0.0063 J-0.0108
G2 X9.1615 Y4.1769 Z-1.8333 I-0.0125 J0.0
G2 Y4.1986 Z-1.8667 I0.0062 J0.0108
G2 X9.1802 Y4.1877 Z-1.9 I0.0063 J-0.0108
G2 X9.1615 Y4.1769 Z-1.9333 I-0.0125 J0.0
G2 Y4.1986 Z-1.9667 I0.0062 J0.0108
G2 X9.1802 Y4.1877 Z-2.0 I0.0063 J-0.0108
G2 X9.1615 Y4.1769 Z-2.0333 I-0.0125 J0.0
G2 Y4.1986 Z-2.0667 I0.0062 J0.0108
G2 X9.1802 Y4.1877 Z-2.1 I0.0063 J-0.0108
G2 X9.1615 Y4.1769 Z-2.1333 I-0.0125 J0.0
G2 Y4.1986 Z-2.1667 I0.0062 J0.0108
G2 X9.1802 Y4.1877 Z-2.2 I0.0063 J-0.0108
G2 X9.1615 Y4.1769 Z-2.2333 I-0.0125 J0.0
G2 Y4.1986 Z-2.2667 I0.0062 J0.0108
G2 X9.1802 Y4.1877 Z-2.3 I0.0062 J-0.0108
G2 X9.1615 Y4.1769 Z-2.3333 I-0.0125 J0.0
G2 Y4.1986 Z-2.3667 I0.0062 J0.0108
G2 X9.1802 Y4.1877 Z-2.4 I0.0062 J-0.0108
G2 X9.1615 Y4.1769 Z-2.4333 I-0.0125 J0.0
G2 Y4.1986 Z-2.4667 I0.0062 J0.0108
G2 X9.1802 Y4.1877 Z-2.5 I0.0062 J-0.0108
G2 X9.1615 Y4.1769 Z-2.5333 I-0.0125 J0.0
G2 Y4.1986 Z-2.5667 I0.0063 J0.0108
G2 X9.1802 Y4.1877 Z-2.6 I0.0062 J-0.0108
G2 X9.1615 Y4.1769 Z-2.6333 I-0.0125 J0.0
G2 Y4.1986 Z-2.6667 I0.0063 J0.0108
G2 X9.1802 Y4.1877 Z-2.7 I0.0062 J-0.0108
G2 X9.1615 Y4.1769 Z-2.7333 I-0.0125 J0.0
G2 Y4.1986 Z-2.7667 I0.0063 J0.0108
G2 X9.1802 Y4.1877 Z-2.8 I0.0062 J-0.0108
G2 X9.1615 Y4.1769 Z-2.8333 I-0.0125 J0.0
G2 Y4.1986 Z-2.8667 I0.0063 J0.0108
G2 X9.1802 Y4.1877 Z-2.9 I0.0062 J-0.0108
G2 X9.1615 Y4.1769 Z-2.9333 I-0.0125 J0.0
G2 Y4.1986 Z-2.9667 I0.0063 J0.0108
G2 X9.1802 Y4.1877 Z-3.0 I0.0062 J-0.0108
G2 X9.1615 Y4.1769 Z-3.0333 I-0.0125 J0.0
G2 Y4.1986 Z-3.0667 I0.0063 J0.0108
G2 X9.1802 Y4.1877 Z-3.1 I0.0062 J-0.0108
G2 X9.1615 Y4.1769 Z-3.1333 I-0.0125 J0.0
G2 Y4.1986 Z-3.1667 I0.0063 J0.0108
G2 X9.1802 Y4.1877 Z-3.2 I0.0062 J-0.0108
G2 X9.1615 Y4.1769 I-0.0125 J0.0
G2 Y4.1986 I0.0063 J0.0108
G2 X9.1802 Y4.1877 I0.0062 J-0.0108
G0 Z3.0
G0 X34.5803 Y125.4728
G1 F1000.0 Z0.0
G2 F2000.0 X34.5615 Y125.462 Z-0.0333 I-0.0125 J0.0
G2 Y125.4836 Z-0.0667 I0.0062 J0.0108
G2 X34.5803 Y125.4728 Z-0.1 I0.0063 J-0.0108
G2 X34.5615 Y125.462 Z-0.1333 I-0.0125 J0.0
G2 Y125.4836 Z-0.1667 I0.0062 J0.0108
G2 X34.5803 Y125.4728 Z-0.2 I0.0063 J-0.0108
G2 X34.5615 Y125.462 Z-0.2333 I-0.0125 J0.0
G2 Y125.4836 Z-0.2667 I0.0062 J0.0108
G2 X34.5803 Y125.4728 Z-0.3 I0.0063 J-0.0108
G2 X34.5615 Y125.462 Z-0.3333 I-0.0125 J0.0
G2 Y125.4836 Z-0.3667 I0.0062 J0.0108
G2 X34.5803 Y125.4728 Z-0.4 I0.0063 J-0.0108
G2 X34.5615 Y125.462 Z-0.4333 I-0.0125 J0.0
G2 Y125.4836 Z-0.4667 I0.0062 J0.0108
G2 X34.5803 Y125.4728 Z-0.5 I0.0063 J-0.0108
G2 X34.5615 Y125.462 Z-0.5333 I-0.0125 J0.0
G2 Y125.4836 Z-0.5667 I0.0062 J0.0108
G2 X34.5803 Y125.4728 Z-0.6 I0.0063 J-0.0108
G2 X34.5615 Y125.462 Z-0.6333 I-0.0125 J0.0
G2 Y125.4836 Z-0.6667 I0.0062 J0.0108
G2 X34.5803 Y125.4728 Z-0.7 I0.0063 J-0.0108
G2 X34.5615 Y125.462 Z-0.7333 I-0.0125 J0.0
G2 Y125.4836 Z-0.7667 I0.0062 J0.0108
G2 X34.5803 Y125.4728 Z-0.8 I0.0063 J-0.0108
G2 X34.5615 Y125.462 Z-0.8333 I-0.0125 J0.0
G2 Y125.4836 Z-0.8667 I0.0062 J0.0108
G2 X34.5803 Y125.4728 Z-0.9 I0.0063 J-0.0108
G2 X34.5615 Y125.462 Z-0.9333 I-0.0125 J0.0
G2 Y125.4836 Z-0.9667 I0.0062 J0.0108
G2 X34.5803 Y125.4728 Z-1.0 I0.0063 J-0.0108
G2 X34.5615 Y125.462 Z-1.0333 I-0.0125 J0.0
G2 Y125.4836 Z-1.0667 I0.0062 J0.0108
G2 X34.5803 Y125.4728 Z-1.1 I0.0063 J-0.0108
G2 X34.5615 Y125.462 Z-1.1333 I-0.0125 J0.0
G2 Y125.4836 Z-1.1667 I0.0062 J0.0108
G2 X34.5803 Y125.4728 Z-1.2 I0.0063 J-0.0108
G2 X34.5615 Y125.462 Z-1.2333 I-0.0125 J0.0
G2 Y125.4836 Z-1.2667 I0.0062 J0.0108
G2 X34.5803 Y125.4728 Z-1.3 I0.0063 J-0.0108
G2 X34.5615 Y125.462 Z-1.3333 I-0.0125 J0.0
G2 Y125.4836 Z-1.3667 I0.0062 J0.0108
G2 X34.5803 Y125.4728 Z-1.4 I0.0063 J-0.0108
G2 X34.5615 Y125.462 Z-1.4333 I-0.0125 J0.0
G2 Y125.4836 Z-1.4667 I0.0062 J0.0108
G2 X34.5803 Y125.4728 Z-1.5 I0.0063 J-0.0108
G2 X34.5615 Y125.462 Z-1.5333 I-0.0125 J0.0
G2 Y125.4836 Z-1.5667 I0.0062 J0.0108
G2 X34.5803 Y125.4728 Z-1.6 I0.0063 J-0.0108
G2 X34.5615 Y125.462 Z-1.6333 I-0.0125 J0.0
G2 Y125.4836 Z-1.6667 I0.0062 J0.0108
G2 X34.5803 Y125.4728 Z-1.7 I0.0063 J-0.0108
G2 X34.5615 Y125.462 Z-1.7333 I-0.0125 J0.0
G2 Y125.4836 Z-1.7667 I0.0062 J0.0108
G2 X34.5803 Y125.4728 Z-1.8 I0.0063 J-0.0108
G2 X34.5615 Y125.462 Z-1.8333 I-0.0125 J0.0
G2 Y125.4836 Z-1.8667 I0.0062 J0.0108
G2 X34.5803 Y125.4728 Z-1.9 I0.0063 J-0.0108
G2 X34.5615 Y125.462 Z-1.9333 I-0.0125 J0.0
G2 Y125.4836 Z-1.9667 I0.0062 J0.0108
G2 X34.5803 Y125.4728 Z-2.0 I0.0063 J-0.0108
G2 X34.5615 Y125.462 Z-2.0333 I-0.0125 J0.0
G2 Y125.4836 Z-2.0667 I0.0062 J0.0108
G2 X34.5803 Y125.4728 Z-2.1 I0.0063 J-0.0108
G2 X34.5615 Y125.462 Z-2.1333 I-0.0125 J0.0
G2 Y125.4836 Z-2.1667 I0.0062 J0.0108
G2 X34.5803 Y125.4728 Z-2.2 I0.0063 J-0.0108
G2 X34.5615 Y125.462 Z-2.2333 I-0.0125 J0.0
G2 Y125.4836 Z-2.2667 I0.0062 J0.0108
G2 X34.5803 Y125.4728 Z-2.3 I0.0063 J-0.0108
G2 X34.5615 Y125.462 Z-2.3333 I-0.0125 J0.0
G2 Y125.4836 Z-2.3667 I0.0062 J0.0108
G2 X34.5803 Y125.4728 Z-2.4 I0.0063 J-0.0108
G2 X34.5615 Y125.462 Z-2.4333 I-0.0125 J0.0
G2 Y125.4836 Z-2.4667 I0.0062 J0.0108
G2 X34.5803 Y125.4728 Z-2.5 I0.0063 J-0.0108
G2 X34.5615 Y125.462 Z-2.5333 I-0.0125 J0.0
G2 Y125.4836 Z-2.5667 I0.0062 J0.0108
G2 X34.5803 Y125.4728 Z-2.6 I0.0063 J-0.0108
G2 X34.5615 Y125.462 Z-2.6333 I-0.0125 J0.0
G2 Y125.4836 Z-2.6667 I0.0062 J0.0108
G2 X34.5803 Y125.4728 Z-2.7 I0.0063 J-0.0108
G2 X34.5615 Y125.462 Z-2.7333 I-0.0125 J0.0
G2 Y125.4836 Z-2.7667 I0.0062 J0.0108
G2 X34.5803 Y125.4728 Z-2.8 I0.0063 J-0.0108
G2 X34.5615 Y125.462 Z-2.8333 I-0.0125 J0.0
G2 Y125.4836 Z-2.8667 I0.0062 J0.0108
G2 X34.5803 Y125.4728 Z-2.9 I0.0063 J-0.0108
G2 X34.5615 Y125.462 Z-2.9333 I-0.0125 J0.0
G2 Y125.4836 Z-2.9667 I0.0063 J0.0108
G2 X34.5803 Y125.4728 Z-3.0 I0.0063 J-0.0108
G2 X34.5615 Y125.462 Z-3.0333 I-0.0125 J0.0
G2 Y125.4836 Z-3.0667 I0.0063 J0.0108
G2 X34.5803 Y125.4728 Z-3.1 I0.0063 J-0.0108
G2 X34.5615 Y125.462 Z-3.1333 I-0.0125 J0.0
G2 Y125.4836 Z-3.1667 I0.0063 J0.0108
G2 X34.5803 Y125.4728 Z-3.2 I0.0063 J-0.0108
G2 X34.5615 Y125.462 I-0.0125 J0.0
G2 Y125.4836 I0.0063 J0.0108
G2 X34.5803 Y125.4728 I0.0062 J-0.0108
( cutout )
S1000
G0 Z3.0
G0 X15.9633 Y-1.0455
G1 F1000.0 Z-0.1
G1 F2000.0 X0.487
G2 X-1.1005 Y0.542 I0.0 J1.5875
G1 Y128.6988
G2 X0.487 Y130.2863 I1.5875 J0.0
G1 X43.3397
G2 X44.9272 Y128.6988 I0.0 J-1.5875
G1 Y0.542
G2 X43.3397 Y-1.0455 I-1.5875 J0.0
G1 X15.9633
G1 F1000.0 Z-0.2
G1 F2000.0 X0.487
G2 X-1.1005 Y0.542 I0.0 J1.5875
G1 Y128.6988
G2 X0.487 Y130.2863 I1.5875 J0.0
G1 X43.3397
G2 X44.9272 Y128.6988 I0.0 J-1.5875
G1 Y0.542
G2 X43.3397 Y-1.0455 I-1.5875 J0.0
G1 X15.9633
G1 F1000.0 Z-0.3
G1 F2000.0 X0.487
G2 X-1.1005 Y0.542 I0.0 J1.5875
G1 Y128.6988
G2 X0.487 Y130.2863 I1.5875 J0.0
G1 X43.3397
G2 X44.9272 Y128.6988 I0.0 J-1.5875
G1 Y0.542
G2 X43.3397 Y-1.0455 I-1.5875 J0.0
G1 X15.9633
G1 F1000.0 Z-0.4
G1 F2000.0 X0.487
G2 X-1.1005 Y0.542 I0.0 J1.5875
G1 Y128.6988
G2 X0.487 Y130.2863 I1.5875 J0.0
G1 X43.3397
G2 X44.9272 Y128.6988 I0.0 J-1.5875
G1 Y0.542
G2 X43.3397 Y-1.0455 I-1.5875 J0.0
G1 X15.9633
G1 F1000.0 Z-0.5
G1 F2000.0 X0.487
G2 X-1.1005 Y0.542 I0.0 J1.5875
G1 Y128.6988
G2 X0.487 Y130.2863 I1.5875 J0.0
G1 X43.3397
G2 X44.9272 Y128.6988 I0.0 J-1.5875
G1 Y0.542
G2 X43.3397 Y-1.0455 I-1.5875 J0.0
G1 X15.9633
G1 F1000.0 Z-0.6
G1 F2000.0 X0.487
G2 X-1.1005 Y0.542 I0.0 J1.5875
G1 Y128.6988
G2 X0.487 Y130.2863 I1.5875 J0.0
G1 X43.3397
G2 X44.9272 Y128.6988 I0.0 J-1.5875
G1 Y0.542
G2 X43.3397 Y-1.0455 I-1.5875 J0.0
G1 X15.9633
G1 F1000.0 Z-0.7
G1 F2000.0 X0.487
G2 X-1.1005 Y0.542 I0.0 J1.5875
G1 Y128.6988
G2 X0.487 Y130.2863 I1.5875 J0.0
G1 X43.3397
G2 X44.9272 Y128.6988 I0.0 J-1.5875
G1 Y0.542
G2 X43.3397 Y-1.0455 I-1.5875 J0.0
G1 X15.9633
G1 F1000.0 Z-0.8
G1 F2000.0 X0.487
G2 X-1.1005 Y0.542 I0.0 J1.5875
G1 Y128.6988
G2 X0.487 Y130.2863 I1.5875 J0.0
G1 X43.3397
G2 X44.9272 Y128.6988 I0.0 J-1.5875
G1 Y0.542
G2 X43.3397 Y-1.0455 I-1.5875 J0.0
G1 X15.9633
G1 F1000.0 Z-0.9
G1 F2000.0 X0.487
G2 X-1.1005 Y0.542 I0.0 J1.5875
G1 Y128.6988
G2 X0.487 Y130.2863 I1.5875 J0.0
G1 X43.3397
G2 X44.9272 Y128.6988 I0.0 J-1.5875
G1 Y0.542
G2 X43.3397 Y-1.0455 I-1.5875 J0.0
G1 X15.9633
G1 F1000.0 Z-1.0
G1 F2000.0 X0.487
G2 X-1.1005 Y0.542 I0.0 J1.5875
G1 Y128.6988
G2 X0.487 Y130.2863 I1.5875 J0.0
G1 X43.3397
G2 X44.9272 Y128.6988 I0.0 J-1.5875
G1 Y0.542
G2 X43.3397 Y-1.0455 I-1.5875 J0.0
G1 X15.9633
G1 F1000.0 Z-1.1
G1 F2000.0 X0.487
G2 X-1.1005 Y0.542 I0.0 J1.5875
G1 Y128.6988
G2 X0.487 Y130.2863 I1.5875 J0.0
G1 X43.3397
G2 X44.9272 Y128.6988 I0.0 J-1.5875
G1 Y0.542
G2 X43.3397 Y-1.0455 I-1.5875 J0.0
G1 X15.9633
G1 F1000.0 Z-1.2
G1 F2000.0 X0.487
G2 X-1.1005 Y0.542 I0.0 J1.5875
G1 Y128.6988
G2 X0.487 Y130.2863 I1.5875 J0.0
G1 X43.3397
G2 X44.9272 Y128.6988 I0.0 J-1.5875
G1 Y0.542
G2 X43.3397 Y-1.0455 I-1.5875 J0.0
G1 X15.9633
G1 F1000.0 Z-1.3
G1 F2000.0 X0.487
G2 X-1.1005 Y0.542 I0.0 J1.5875
G1 Y128.6988
G2 X0.487 Y130.2863 I1.5875 J0.0
G1 X43.3397
G2 X44.9272 Y128.6988 I0.0 J-1.5875
G1 Y0.542
G2 X43.3397 Y-1.0455 I-1.5875 J0.0
G1 X15.9633
G1 F1000.0 Z-1.4
G1 F2000.0 X0.487
G2 X-1.1005 Y0.542 I0.0 J1.5875
G1 Y128.6988
G2 X0.487 Y130.2863 I1.5875 J0.0
G1 X43.3397
G2 X44.9272 Y128.6988 I0.0 J-1.5875
G1 Y0.542
G2 X43.3397 Y-1.0455 I-1.5875 J0.0
G1 X15.9633
G1 F1000.0 Z-1.5
G1 F2000.0 X0.487
G2 X-1.1005 Y0.542 I0.0 J1.5875
G1 Y128.6988
G2 X0.487 Y130.2863 I1.5875 J0.0
G1 X43.3397
G2 X44.9272 Y128.6988 I0.0 J-1.5875
G1 Y0.542
G2 X43.3397 Y-1.0455 I-1.5875 J0.0
G1 X15.9633
G1 F1000.0 Z-1.6
G1 F2000.0 X0.487
G2 X-1.1005 Y0.542 I0.0 J1.5875
G1 Y128.6988
G2 X0.487 Y130.2863 I1.5875 J0.0
G1 X43.3397
G2 X44.9272 Y128.6988 I0.0 J-1.5875
G1 Y0.542
G2 X43.3397 Y-1.0455 I-1.5875 J0.0
G1 X15.9633
G1 F1000.0 Z-1.7
G1 F2000.0 X0.487
G2 X-1.1005 Y0.542 I0.0 J1.5875
G1 Y128.6988
G2 X0.487 Y130.2863 I1.5875 J0.0
G1 X43.3397
G2 X44.9272 Y128.6988 I0.0 J-1.5875
G1 Y0.542
G2 X43.3397 Y-1.0455 I-1.5875 J0.0
G1 X15.9633
G1 F1000.0 Z-1.8
G1 F2000.0 X0.487
G2 X-1.1005 Y0.542 I0.0 J1.5875
G1 Y128.6988
G2 X0.487 Y130.2863 I1.5875 J0.0
G1 X43.3397
G2 X44.9272 Y128.6988 I0.0 J-1.5875
G1 Y0.542
G2 X43.3397 Y-1.0455 I-1.5875 J0.0
G1 X15.9633
G1 F1000.0 Z-1.9
G1 F2000.0 X0.487
G2 X-1.1005 Y0.542 I0.0 J1.5875
G1 Y128.6988
G2 X0.487 Y130.2863 I1.5875 J0.0
G1 X43.3397
G2 X44.9272 Y128.6988 I0.0 J-1.5875
G1 Y0.542
G2 X43.3397 Y-1.0455 I-1.5875 J0.0
G1 X15.9633
G1 F1000.0 Z-2.0
G1 F2000.0 X0.487
G2 X-1.1005 Y0.542 I0.0 J1.5875
G1 Y128.6988
G2 X0.487 Y130.2863 I1.5875 J0.0
G1 X43.3397
G2 X44.9272 Y128.6988 I0.0 J-1.5875
G1 Y0.542
G2 X43.3397 Y-1.0455 I-1.5875 J0.0
G1 X15.9633
G1 F1000.0 Z-2.1
G1 F2000.0 X0.487
G2 X-1.1005 Y0.542 I0.0 J1.5875
G1 Y128.6988
G2 X0.487 Y130.2863 I1.5875 J0.0
G1 X43.3397
G2 X44.9272 Y128.6988 I0.0 J-1.5875
G1 Y0.542
G2 X43.3397 Y-1.0455 I-1.5875 J0.0
G1 X15.9633
G1 F1000.0 Z-2.2
G1 F2000.0 X0.487
G2 X-1.1005 Y0.542 I0.0 J1.5875
G1 Y128.6988
G2 X0.487 Y130.2863 I1.5875 J0.0
G1 X43.3397
G2 X44.9272 Y128.6988 I0.0 J-1.5875
G1 Y0.542
G2 X43.3397 Y-1.0455 I-1.5875 J0.0
G1 X15.9633
G1 F1000.0 Z-2.3
G1 F2000.0 X0.487
G2 X-1.1005 Y0.542 I0.0 J1.5875
G1 Y128.6988
G2 X0.487 Y130.2863 I1.5875 J0.0
G1 X43.3397
G2 X44.9272 Y128.6988 I0.0 J-1.5875
G1 Y0.542
G2 X43.3397 Y-1.0455 I-1.5875 J0.0
G1 X15.9633
G1 F1000.0 Z-2.4
G1 F2000.0 X0.487
G2 X-1.1005 Y0.542 I0.0 J1.5875
G1 Y128.6988
G2 X0.487 Y130.2863 I1.5875 J0.0
G1 X43.3397
G2 X44.9272 Y128.6988 I0.0 J-1.5875
G1 Y0.542
G2 X43.3397 Y-1.0455 I-1.5875 J0.0
G1 X15.9633
G1 F1000.0 Z-2.5
G1 F2000.0 X0.487
G2 X-1.1005 Y0.542 I0.0 J1.5875
G1 Y128.6988
G2 X0.487 Y130.2863 I1.5875 J0.0
G1 X43.3397
G2 X44.9272 Y128.6988 I0.0 J-1.5875
G1 Y0.542
G2 X43.3397 Y-1.0455 I-1.5875 J0.0
G1 X15.9633
G1 F1000.0 Z-2.6
G1 F2000.0 X0.487
G2 X-1.1005 Y0.542 I0.0 J1.5875
G1 Y128.6988
G2 X0.487 Y130.2863 I1.5875 J0.0
G1 X43.3397
G2 X44.9272 Y128.6988 I0.0 J-1.5875
G1 Y0.542
G2 X43.3397 Y-1.0455 I-1.5875 J0.0
G1 X15.9633
G1 F1000.0 Z-2.7
G1 F2000.0 X0.487
G2 X-1.1005 Y0.542 I0.0 J1.5875
G1 Y128.6988
G2 X0.487 Y130.2863 I1.5875 J0.0
G1 X43.3397
G2 X44.9272 Y128.6988 I0.0 J-1.5875
G1 Y0.542
G2 X43.3397 Y-1.0455 I-1.5875 J0.0
G1 X15.9633
G1 F1000.0 Z-2.8
G1 F2000.0 X0.487
G2 X-1.1005 Y0.542 I0.0 J1.5875
G1 Y128.6988
G2 X0.487 Y130.2863 I1.5875 J0.0
G1 X43.3397
G2 X44.9272 Y128.6988 I0.0 J-1.5875
G1 Y0.542
G2 X43.3397 Y-1.0455 I-1.5875 J0.0
G1 X15.9633
G1 F1000.0 Z-2.9
G1 F2000.0 X0.487
G2 X-1.1005 Y0.542 I0.0 J1.5875
G1 Y128.6988
G2 X0.487 Y130.2863 I1.5875 J0.0
G1 X43.3397
G2 X44.9272 Y128.6988 I0.0 J-1.5875
G1 Y0.542
G2 X43.3397 Y-1.0455 I-1.5875 J0.0
G1 X15.9633
G1 F1000.0 Z-3.0
G1 F2000.0 X0.487
G2 X-1.1005 Y0.542 I0.0 J1.5875
G1 Y128.6988
G2 X0.487 Y130.2863 I1.5875 J0.0
G1 X43.3397
G2 X44.9272 Y128.6988 I0.0 J-1.5875
G1 Y0.542
G2 X43.3397 Y-1.0455 I-1.5875 J0.0
G1 X15.9633
G1 F1000.0 Z-3.1
G1 F2000.0 X0.487
G2 X-1.1005 Y0.542 I0.0 J1.5875
G1 Y128.6988
G2 X0.487 Y130.2863 I1.5875 J0.0
G1 X43.3397
G2 X44.9272 Y128.6988 I0.0 J-1.5875
G1 Y0.542
G2 X43.3397 Y-1.0455 I-1.5875 J0.0
G1 X15.9633
G1 F1000.0 Z-3.2
G1 F2000.0 X0.487
G2 X-1.1005 Y0.542 I0.0 J1.5875
G1 Y128.6988
G2 X0.487 Y130.2863 I1.5875 J0.0
G1 X43.3397
G2 X44.9272 Y128.6988 I0.0 J-1.5875
G1 Y0.542
G2 X43.3397 Y-1.0455 I-1.5875 J0.0
G1 X15.9633
G0 Z3.0
M5
M30
